germany/municipalities/07235143.svg

<?xml version="1.0" encoding="UTF-8" standalone="no"?>
<!-- Created with Inkscape (http://www.inkscape.org/) -->

<svg
   xmlns:dc="http://purl.org/dc/elements/1.1/"
   xmlns:cc="http://creativecommons.org/ns#"
   xmlns:rdf="http://www.w3.org/1999/02/22-rdf-syntax-ns#"
   xmlns:svg="http://www.w3.org/2000/svg"
   xmlns="http://www.w3.org/2000/svg"
   xmlns:sodipodi="http://sodipodi.sourceforge.net/DTD/sodipodi-0.dtd"
   xmlns:inkscape="http://www.inkscape.org/namespaces/inkscape"
   width="135.12654mm"
   height="156.40474mm"
   viewBox="0 0 135.12654 156.40474"
   version="1.1"
   id="svg865"
   inkscape:version="0.92.5 (2060ec1f9f, 2020-04-08)"
   sodipodi:docname="DEU Wasserliesch COA.svg">
  <defs
     id="defs859">
    <inkscape:path-effect
       effect="spiro"
       id="path-effect1296"
       is_visible="true" />
    <inkscape:path-effect
       effect="spiro"
       id="path-effect1154"
       is_visible="true" />
    <inkscape:path-effect
       effect="spiro"
       id="path-effect3644"
       is_visible="true" />
    <inkscape:path-effect
       effect="spiro"
       id="path-effect3636"
       is_visible="true" />
    <inkscape:path-effect
       effect="spiro"
       id="path-effect3544"
       is_visible="true" />
    <inkscape:path-effect
       effect="spiro"
       id="path-effect3466"
       is_visible="true" />
    <inkscape:path-effect
       effect="spiro"
       id="path-effect3544-2"
       is_visible="true" />
    <inkscape:path-effect
       effect="spiro"
       id="path-effect3644-8"
       is_visible="true" />
    <inkscape:path-effect
       effect="spiro"
       id="path-effect3644-3"
       is_visible="true" />
    <inkscape:path-effect
       effect="spiro"
       id="path-effect3636-0"
       is_visible="true" />
    <inkscape:path-effect
       effect="spiro"
       id="path-effect1727-0-1"
       is_visible="true" />
    <inkscape:path-effect
       effect="spiro"
       id="path-effect1731-8-3"
       is_visible="true" />
    <inkscape:path-effect
       effect="spiro"
       id="path-effect1727-3"
       is_visible="true" />
    <inkscape:path-effect
       effect="spiro"
       id="path-effect1731-7"
       is_visible="true" />
    <inkscape:path-effect
       effect="spiro"
       id="path-effect841-8"
       is_visible="true" />
    <inkscape:path-effect
       effect="spiro"
       id="path-effect1154-4"
       is_visible="true" />
    <inkscape:path-effect
       effect="spiro"
       id="path-effect1296-4"
       is_visible="true" />
  </defs>
  <sodipodi:namedview
     id="base"
     pagecolor="#ffffff"
     bordercolor="#666666"
     borderopacity="1.0"
     inkscape:pageopacity="0.0"
     inkscape:pageshadow="2"
     inkscape:zoom="1.3414833"
     inkscape:cx="255.35742"
     inkscape:cy="295.56767"
     inkscape:document-units="mm"
     inkscape:current-layer="layer1"
     showgrid="false"
     inkscape:window-width="1920"
     inkscape:window-height="1046"
     inkscape:window-x="-11"
     inkscape:window-y="-11"
     inkscape:window-maximized="1"
     fit-margin-top="0"
     fit-margin-left="0"
     fit-margin-right="0"
     fit-margin-bottom="0"
     inkscape:snap-global="false"
     inkscape:snap-midpoints="true"
     inkscape:snap-smooth-nodes="true" />
  <metadata
     id="metadata862">
    <rdf:RDF>
      <cc:Work
         rdf:about="">
        <dc:format>image/svg+xml</dc:format>
        <dc:type
           rdf:resource="http://purl.org/dc/dcmitype/StillImage" />
        <dc:title></dc:title>
      </cc:Work>
    </rdf:RDF>
  </metadata>
  <g
     inkscape:label="Ebene 1"
     inkscape:groupmode="layer"
     id="layer1"
     transform="translate(-7.6928645,162.01722)">
    <path
       style="fill:#009a00;fill-opacity:1;fill-rule:evenodd;stroke:none;stroke-width:1.32291663;stroke-linecap:round;stroke-linejoin:round;stroke-miterlimit:4;stroke-dasharray:none;stroke-opacity:1"
       inkscape:connector-curvature="0"
       d="m 142.15795,-161.35576 -0.30587,93.65729 C 140.36285,-30.507417 110.93902,-6.2947614 75.256132,-6.2739361 39.605353,-6.3196058 10.170503,-30.5428 8.6601928,-67.69847 l -0.30587,-93.65729 H 75.254523 Z"
       id="path10563-0-6-2-6-8-0"
       sodipodi:nodetypes="ccccccc" />
    <path
       style="opacity:1;fill:#ffffff;fill-opacity:1;fill-rule:evenodd;stroke:#000000;stroke-width:5.00000048;stroke-linecap:round;stroke-linejoin:round;stroke-miterlimit:4;stroke-dasharray:none;stroke-opacity:1;paint-order:normal"
       d="M 255.35742 2.5 L 255.35742 588.63672 C 390.22188 588.55801 501.43001 497.04508 507.05859 356.48047 L 508.21484 2.5 L 255.35742 2.5 z "
       transform="matrix(0.26458333,0,0,0.26458333,7.6928645,-162.01722)"
       id="rect934" />
    <path
       style="fill:#ffffff;stroke:#000000;stroke-width:5;stroke-linecap:round;stroke-linejoin:round;stroke-miterlimit:4;stroke-dasharray:none;stroke-opacity:1"
       d="M 2.5 2.5 L 2.6601562 51.378906 C 11.654162 79.103479 20.795532 106.76905 31.738281 133.77344 C 51.544861 182.65191 77.110835 229.05438 96.515625 278.09375 C 115.92043 327.13315 129.0276 378.46511 148.0293 427.66211 C 167.03112 476.85941 191.80278 523.60402 212.80664 571.98047 C 214.87166 576.73665 216.88901 581.5135 218.88086 586.30078 C 230.79991 587.82629 242.97815 588.62086 255.35742 588.63672 L 255.35742 496.70508 C 240.61524 465.38178 225.66944 434.15443 213.20117 401.87305 C 194.19947 352.67605 181.0923 301.34409 161.6875 252.30469 C 142.28272 203.26533 116.71674 156.8648 96.910156 107.98633 C 82.92883 73.483361 71.871472 37.907332 60.326172 2.5 L 2.5 2.5 z M 255.35742 588.63672 C 257.24557 588.63557 259.12739 588.61152 261.00586 588.57422 C 259.12744 588.61104 257.24533 588.63562 255.35742 588.63672 z M 289.8125 586.57031 C 289.59713 586.59613 289.38155 586.62115 289.16602 586.64648 C 289.38159 586.62109 289.5971 586.59618 289.8125 586.57031 z M 284.87891 587.12109 C 284.56237 587.15345 284.24461 587.18157 283.92773 587.21289 C 284.24448 587.18145 284.5625 587.15356 284.87891 587.12109 z M 276.47852 587.85156 C 275.95531 587.88959 275.43423 587.93548 274.91016 587.9707 C 275.43428 587.93521 275.95526 587.88986 276.47852 587.85156 z M 271.88281 588.15039 C 271.01366 588.19971 270.14488 588.24939 269.27344 588.29102 C 270.14472 588.24899 271.01384 588.20013 271.88281 588.15039 z M 266.54883 588.4082 C 265.40555 588.45215 264.26031 588.48885 263.11328 588.51953 C 264.26023 588.48848 265.40567 588.45262 266.54883 588.4082 z "
       transform="matrix(0.26458333,0,0,0.26458333,7.6928645,-162.01722)"
       id="path1152-4" />
    <path
       style="opacity:1;fill:#009a00;fill-opacity:1;fill-rule:evenodd;stroke:#000000;stroke-width:5;stroke-linecap:round;stroke-linejoin:round;stroke-miterlimit:4;stroke-dasharray:none;stroke-opacity:1;paint-order:normal"
       d="M 375.91211 192.48828 L 375.91211 447.2207 C 373.37952 431.67966 370.85688 416.13678 368.3125 400.59766 C 359.96693 349.62859 351.35985 297.99678 330.09961 250.92773 C 323.34384 235.97082 315.34698 221.57528 306.2168 207.9375 C 303.24491 224.97901 301.11827 242.16794 299.84766 259.41992 C 296.34355 306.9977 299.39583 355.13145 309.93164 401.66016 C 318.90138 441.27267 334.11405 479.39336 352.92188 515.24023 C 357.94993 524.82352 364.6124 533.50398 371.375 541.95312 C 374.78108 546.20864 380.49758 552.28921 384.77344 556.74219 C 390.64728 553.54641 396.37119 550.13215 401.92383 546.49219 C 401.92506 546.49138 401.9265 546.49104 401.92773 546.49023 C 403.62943 543.52232 405.30715 540.53779 406.93945 537.52344 C 425.87723 502.55111 440.13901 464.57821 449.50195 425.24414 C 460.49962 379.0425 464.73577 331.01853 462.99023 283.36133 C 462.35731 266.08055 460.94319 248.83848 458.75586 231.71875 C 450.03464 245.08554 442.32142 259.24198 435.7207 273.99609 C 416.25187 317.51341 406.78579 365.35728 398.14844 412.93555 L 398.14844 192.48828 L 375.91211 192.48828 z "
       transform="matrix(0.26458333,0,0,0.26458333,7.6928645,-162.01722)"
       id="rect1290-4" />
    <rect
       style="opacity:1;fill:#000000;fill-opacity:1;fill-rule:evenodd;stroke:#110000;stroke-width:1.32291663;stroke-linecap:round;stroke-linejoin:round;stroke-miterlimit:4;stroke-dasharray:none;stroke-opacity:1;paint-order:normal"
       id="rect1292-5"
       width="16.808813"
       height="43.492798"
       x="101.69027"
       y="-151.0087"
       ry="8.4044065"
       rx="8.4044065" />
    <path
       style="fill:none;fill-rule:evenodd;stroke:#000000;stroke-width:1.32291663;stroke-linecap:round;stroke-linejoin:round;stroke-miterlimit:4;stroke-dasharray:none;stroke-opacity:1"
       inkscape:connector-curvature="0"
       d="m 142.15795,-161.35576 -0.30587,93.657289 C 140.36285,-30.507417 110.93902,-6.2947624 75.256132,-6.2739374 39.605353,-6.3196074 10.170503,-30.542802 8.6601926,-67.698471 l -0.30587,-93.657289 H 75.254522 Z"
       id="path10563-0-6-2-6-8"
       sodipodi:nodetypes="ccccccc" />
  </g>
</svg>

<svg xmlns="http://www.w3.org/2000/svg" width="510.714" height="591.136" viewBox="0 0 135.127 156.405"><g transform="translate(-7.693 162.017)"><path style="fill:#009a00;fill-opacity:1;fill-rule:evenodd;stroke:none;stroke-width:1.32291663;stroke-linecap:round;stroke-linejoin:round;stroke-miterlimit:4;stroke-dasharray:none;stroke-opacity:1" d="m142.158-161.356-.306 93.658c-1.49 37.19-30.913 61.403-66.596 61.424C39.606-6.32 10.171-30.543 8.66-67.698l-.306-93.658h66.9z"/><path style="opacity:1;fill:#fff;fill-opacity:1;fill-rule:evenodd;stroke:#000;stroke-width:5.00000048;stroke-linecap:round;stroke-linejoin:round;stroke-miterlimit:4;stroke-dasharray:none;stroke-opacity:1;paint-order:normal" d="M255.357 2.5v586.137c134.865-.079 246.073-91.592 251.702-232.157L508.215 2.5H255.357z" transform="matrix(.26458 0 0 .26458 7.693 -162.017)"/><path style="fill:#fff;stroke:#000;stroke-width:5;stroke-linecap:round;stroke-linejoin:round;stroke-miterlimit:4;stroke-dasharray:none;stroke-opacity:1" d="m2.5 2.5.16 48.879c8.994 27.724 18.136 55.39 29.078 82.394 19.807 48.879 45.373 95.281 64.778 144.32 19.404 49.04 32.512 100.372 51.513 149.57 19.002 49.196 43.774 95.941 64.778 144.317 2.065 4.757 4.082 9.534 6.074 14.32a290.206 290.206 0 0 0 36.476 2.337v-91.932c-14.742-31.323-29.688-62.55-42.156-94.832-19.002-49.197-32.109-100.529-51.513-149.568-19.405-49.04-44.971-95.44-64.778-144.319C82.93 73.483 71.871 37.907 60.326 2.5H2.5zm252.857 586.137a293.38 293.38 0 0 0 0 0zm34.456-2.067-.647.076.647-.076zm-4.934.551c-.317.032-.634.06-.951.092.316-.032.635-.06.95-.092zm-8.4.73c-.524.039-1.045.084-1.569.12.524-.036 1.045-.081 1.569-.12zm-4.596.3c-.87.049-1.738.098-2.61.14.872-.042 1.74-.09 2.61-.14zm-5.334.257a294.258 294.258 0 0 1 0 0z" transform="matrix(.26458 0 0 .26458 7.693 -162.017)"/><path style="opacity:1;fill:#009a00;fill-opacity:1;fill-rule:evenodd;stroke:#000;stroke-width:5;stroke-linecap:round;stroke-linejoin:round;stroke-miterlimit:4;stroke-dasharray:none;stroke-opacity:1;paint-order:normal" d="M375.912 192.488v254.733c-2.532-15.541-5.055-31.084-7.6-46.623-8.345-50.97-16.952-102.601-38.212-149.67a297.311 297.311 0 0 0-23.883-42.99 523.584 523.584 0 0 0-6.37 51.482c-3.503 47.578-.451 95.711 10.085 142.24 8.97 39.613 24.182 77.733 42.99 113.58 5.028 9.584 11.69 18.264 18.453 26.713 3.406 4.256 9.123 10.336 13.398 14.79a243.788 243.788 0 0 0 17.15-10.25l.005-.003a422.586 422.586 0 0 0 5.011-8.967c18.938-34.972 33.2-72.945 42.563-112.279 10.998-46.202 15.234-94.225 13.488-141.883a573.115 573.115 0 0 0-4.234-51.642 306.379 306.379 0 0 0-23.035 42.277c-19.47 43.517-28.935 91.361-37.573 138.94V192.488h-22.236z" transform="matrix(.26458 0 0 .26458 7.693 -162.017)"/><rect style="opacity:1;fill:#000;fill-opacity:1;fill-rule:evenodd;stroke:#100;stroke-width:1.32291663;stroke-linecap:round;stroke-linejoin:round;stroke-miterlimit:4;stroke-dasharray:none;stroke-opacity:1;paint-order:normal" width="16.809" height="43.493" x="101.69" y="-151.009" ry="8.404" rx="8.404"/><path style="fill:none;fill-rule:evenodd;stroke:#000;stroke-width:1.32291663;stroke-linecap:round;stroke-linejoin:round;stroke-miterlimit:4;stroke-dasharray:none;stroke-opacity:1" d="m142.158-161.356-.306 93.658c-1.49 37.19-30.913 61.403-66.596 61.424C39.606-6.32 10.171-30.543 8.66-67.698l-.306-93.658h66.9z"/></g></svg>
